public/img/removal/remove-filter-date-icon.svg

<svg fill="none" height="24" viewBox="0 0 24 24" width="24" xmlns="http://www.w3.org/2000/svg"><path d="m7 11h2v2h-2zm14-5v14c0 1.1-.9 2-2 2h-14c-1.11 0-2-.9-2-2l.01-14c0-1.1.88-2 1.99-2h1v-2h2v2h8v-2h2v2h1c1.1 0 2 .9 2 2zm-16 2h14v-2h-14zm14 12v-10h-14v10zm-4-7h2v-2h-2zm-4 0h2v-2h-2z" fill="#666"/></svg>

<svg width="24" height="24" viewBox="0 0 24 24" fill="none" xmlns="http://www.w3.org/2000/svg">
<title>Calendar Icon</title>
<path d="M7 11H9V13H7V11ZM21 6V20C21 21.1 20.1 22 19 22H5C3.89 22 3 21.1 3 20L3.01 6C3.01 4.9 3.89 4 5 4H6V2H8V4H16V2H18V4H19C20.1 4 21 4.9 21 6ZM5 8H19V6H5V8ZM19 20V10H5V20H19ZM15 13H17V11H15V13ZM11 13H13V11H11V13Z" fill="#666666"/>
</svg>
